src/assets/bg_prize_pool_title.svg

<svg width="556" height="113" viewBox="0 0 556 113" fill="none" xmlns="http://www.w3.org/2000/svg">
<path d="M514.826 91.6879C513.655 94.8103 510.67 96.8789 507.335 96.8789L48.4229 96.8789C45.0882 96.8789 42.1032 94.8103 40.9323 91.6878L16.9323 27.6879C14.971 22.4579 18.8373 16.8789 24.4229 16.8789L531.335 16.8789C536.921 16.8789 540.787 22.4579 538.826 27.6879L514.826 91.6879Z" fill="url(#paint0_linear_2001_11904)"/>
<path d="M511.907 89.2391L518.826 91.8926C516.749 97.3056 511.552 100.879 505.754 100.879L49.0038 100.879C43.2063 100.879 38.0085 97.3056 35.9323 91.8926L12.535 30.8925C9.01856 21.7244 15.7871 11.8789 25.6065 11.8789L529.151 11.8789C538.971 11.8789 545.739 21.7244 542.223 30.8926M511.907 89.2391L542.223 30.8926M511.907 89.2391L518.826 91.8926M511.907 89.2391L518.826 91.8926M542.223 30.8926L518.826 91.8926M542.223 30.8926L518.826 91.8926" stroke="url(#paint1_linear_2001_11904)" stroke-width="16"/>
<path d="M507.335 104.879C514.004 104.879 519.974 100.742 522.316 94.4969L546.316 30.4969C550.239 20.0369 542.506 8.87891 531.335 8.87891L24.4229 8.87886C13.2517 8.87886 5.51905 20.0368 9.44166 30.4968L33.4417 94.4968C35.7834 100.742 41.7534 104.879 48.4229 104.879L507.335 104.879Z" stroke="url(#paint2_linear_2001_11904)" stroke-width="16"/>
<defs>
<linearGradient id="paint0_linear_2001_11904" x1="277.879" y1="106.879" x2="277.879" y2="16.8789" gradientUnits="userSpaceOnUse">
<stop stop-color="#640800"/>
<stop offset="1" stop-color="#AA0E00"/>
</linearGradient>
<linearGradient id="paint1_linear_2001_11904" x1="277.879" y1="106.879" x2="277.879" y2="16.8789" gradientUnits="userSpaceOnUse">
<stop stop-color="#CD1100"/>
<stop offset="1" stop-color="#5D0700"/>
</linearGradient>
<linearGradient id="paint2_linear_2001_11904" x1="277.879" y1="106.879" x2="277.879" y2="16.8789" gradientUnits="userSpaceOnUse">
<stop stop-color="#850B00"/>
<stop offset="1" stop-color="#CD1100"/>
</linearGradient>
</defs>
</svg>

<svg width="556" height="113" fill="none" xmlns="http://www.w3.org/2000/svg"><path d="M514.826 91.688a8 8 0 0 1-7.491 5.19H48.423a8 8 0 0 1-7.49-5.19l-24-64c-1.962-5.23 1.904-10.81 7.49-10.81h506.912c5.586 0 9.452 5.58 7.491 10.81l-24 64z" fill="url(#a)"/><path d="m511.907 89.24 6.919 2.653a14.001 14.001 0 0 1-13.072 8.986H49.004a14 14 0 0 1-13.072-8.986l-23.397-61c-3.516-9.169 3.252-19.014 13.072-19.014H529.15c9.82 0 16.588 9.845 13.072 19.014m-30.316 58.346 30.316-58.346m-30.316 58.346 6.919 2.654m-6.919-2.654 6.919 2.654m23.397-61-23.397 61m23.397-61-23.397 61" stroke="url(#b)" stroke-width="16"/><path d="M507.335 104.879a16 16 0 0 0 14.981-10.382l24-64c3.923-10.46-3.81-21.618-14.981-21.618H24.423c-11.171 0-18.904 11.158-14.981 21.618l24 64a16 16 0 0 0 14.98 10.382h458.913z" stroke="url(#c)" stroke-width="16"/><defs><linearGradient id="a" x1="277.879" y1="106.879" x2="277.879" y2="16.879" gradientUnits="userSpaceOnUse"><stop stop-color="#640800"/><stop offset="1" stop-color="#AA0E00"/></linearGradient><linearGradient id="b" x1="277.879" y1="106.879" x2="277.879" y2="16.879" gradientUnits="userSpaceOnUse"><stop stop-color="#CD1100"/><stop offset="1" stop-color="#5D0700"/></linearGradient><linearGradient id="c" x1="277.879" y1="106.879" x2="277.879" y2="16.879" gradientUnits="userSpaceOnUse"><stop stop-color="#850B00"/><stop offset="1" stop-color="#CD1100"/></linearGradient></defs></svg>
